static/images/twitter.svg

<svg width="43" height="43" viewBox="0 0 43 43" xmlns="http://www.w3.org/2000/svg"><g id="Page-1" fill="none" fill-rule="evenodd"><g id="Artboard-Copy-12" transform="translate(-190 -329)" fill-rule="nonzero"><g id="twitter" transform="translate(190 329)"><circle id="Oval" fill="#55ACEE" cx="21.3474071" cy="21.3470265" r="21.3470265"/><path d="M34.4232124 15.3414867c-.9147965.405646-1.8988496.6800089-2.9308496.8025398 1.0536903-.6313008 1.8623186-1.6301946 2.2439912-2.8223982-.9859558.5848761-2.0784602 1.0091682-3.2402213 1.2378673-.9307787-.9912832-2.2569292-1.6107876-3.7253982-1.6107876-2.8174513 0-5.1025398 2.2850885-5.1025398 5.1025398 0 .399938.0452832.7892212.1328053 1.1629026-4.2406372-.2127168-8.0006637-2.2439911-10.5174956-5.332-.4391327.7534514-.6910442 1.6305753-.6910442 2.5655399 0 1.7698495.9014779 3.3323097 2.2698672 4.2471062-.8360265-.0262567-1.6233451-.2557169-2.3109646-.6389115-.0003805.0216902-.0003805.0433805-.0003805.0646902 0 2.4723098 1.7595752 4.5344071 4.0933717 5.0028407-.4277168.1172036-.8794071.1792301-1.3440354.1792301-.3295398 0-.6488053-.0315841-.9600797-.0909469.6491859 2.026708 2.5331947 3.5020266 4.766531 3.5435044-1.7466372 1.36877-3.9464867 2.1842478-6.3377434 2.1842478-.4109734 0-.81814154-.0239734-1.21655747-.0715398 2.25692917 1.4483009 4.93967257 2.2926991 7.82105307 2.2926991 9.385416 0 14.5180177-7.7750088 14.5180177-14.5183982 0-.2210885-.0049469-.4414159-.0148407-.6598407.9977522-.7192036 1.8626991-1.6176372 2.5465133-2.640885z" id="Shape" fill="#F1F2F2"/></g></g></g></svg>

<?xml version="1.0" encoding="UTF-8"?>
<svg width="43px" height="43px" viewBox="0 0 43 43" version="1.1" xmlns="http://www.w3.org/2000/svg" xmlns:xlink="http://www.w3.org/1999/xlink">
    <!-- Generator: Sketch 49.3 (51167) - http://www.bohemiancoding.com/sketch -->
    <title>twitter</title>
    <desc>Created with Sketch.</desc>
    <defs></defs>
    <g id="Page-1" stroke="none" stroke-width="1" fill="none" fill-rule="evenodd">
        <g id="Artboard-Copy-12" transform="translate(-190.000000, -329.000000)" fill-rule="nonzero">
            <g id="twitter" transform="translate(190.000000, 329.000000)">
                <circle id="Oval" fill="#55ACEE" cx="21.3474071" cy="21.3470265" r="21.3470265"></circle>
                <path d="M34.4232124,15.3414867 C33.5084159,15.7471327 32.5243628,16.0214956 31.4923628,16.1440265 C32.5460531,15.5127257 33.3546814,14.5138319 33.736354,13.3216283 C32.7503982,13.9065044 31.6578938,14.3307965 30.4961327,14.5594956 C29.565354,13.5682124 28.2392035,12.948708 26.7707345,12.948708 C23.9532832,12.948708 21.6681947,15.2337965 21.6681947,18.0512478 C21.6681947,18.4511858 21.7134779,18.840469 21.801,19.2141504 C17.5603628,19.0014336 13.8003363,16.9701593 11.2835044,13.8821504 C10.8443717,14.6356018 10.5924602,15.5127257 10.5924602,16.4476903 C10.5924602,18.2175398 11.4939381,19.78 12.8623274,20.6947965 C12.0263009,20.6685398 11.2389823,20.4390796 10.5513628,20.055885 C10.5509823,20.0775752 10.5509823,20.0992655 10.5509823,20.1205752 C10.5509823,22.592885 12.3105575,24.6549823 14.644354,25.1234159 C14.2166372,25.2406195 13.7649469,25.302646 13.3003186,25.302646 C12.9707788,25.302646 12.6515133,25.2710619 12.3402389,25.2116991 C12.9894248,27.2384071 14.8734336,28.7137257 17.1067699,28.7552035 C15.3601327,30.1239735 13.1602832,30.9394513 10.7690265,30.9394513 C10.3580531,30.9394513 9.95088496,30.9154779 9.55246903,30.8679115 C11.8093982,32.3162124 14.4921416,33.1606106 17.3735221,33.1606106 C26.7589381,33.1606106 31.8915398,25.3856018 31.8915398,18.6422124 C31.8915398,18.4211239 31.8865929,18.2007965 31.8766991,17.9823717 C32.8744513,17.2631681 33.7393982,16.3647345 34.4232124,15.3414867 Z" id="Shape" fill="#F1F2F2"></path>
            </g>
        </g>
    </g>
</svg>
